X:1
T:New Year’s Hymn
T:New Year’s Hymn
T:Howard Kingsbury
T:Caroline Eustis Roberts Parker, 1869
T:Public Domain Courtesy of the Cyber Hymnal™
C:Howard Kingsbury
Z:Public Domain
Z:Courtesy of the Cyber Hymnal™
%%score ( 1 2 ) ( 3 4 )
L:1/8
Q:1/4=100
M:4/4
K:C
V:1 treble 
V:2 treble 
V:3 bass 
V:4 bass 
V:1
 [EG]2 [CE]>[DF] [EG]2 (A>B) | [Ec]2 [Fc]2 [Ec]3 [Ec] | [Dd]2 (c>B) [EA]2 (B>c) | %3
w: 1.~O bro- thers, how the *|years roll on, Our|years of * prom- ise, *|
w: 2.~O bro- thers, how the *|years roll on, And|bring new * du- ties, *|
w: 3.~O bro- thers, how the *|years roll on, And|bring new * mer- cies, *|
 [GB]2 [^FA]2 G3 [DG] | [EG]2 ([CE]>[DF]) [EG]2 (A>B) | [Ec]2 [Fd]2 [Ge]3 [Ee] | %6
w: one by one! The|old year * fades at *|still mid- night; The|
w: one by one! We’ve|work to * do; make *|no de- lay; The|
w: one by one! Come|with thanks- * giv- ing, *|come with prayer, And|
 (ed) (cB) (dc) (BA) | [DG]2 [^FA]2 [GB]2 z2 | [GB]2 [GB]>[Ac] [Bd]3 G | cG (EG) c2 z2 | %10
w: New * Year * comes * with *|morn- ing light.|Up, bro- thers, up, the|New Year dawns; * Up,|
w: light * that * beams * is *|New Year’s day.|Up, bro- thers, up, the|New Year dawns; * Up,|
w: greet * the * New * Year’s *|morn- ing fair!|Up, bro- thers, up, the|New Year dawns; * Up,|
 [GB]2 [GB]>[Ac] [Bd]3 G | cG (ce) [Gd]2 z2 | [Ge]2 [Ge]>[Ge] [^Ge]3 [Ge] | %13
w: up, and gird your ar-|mor on; Go * forth|to fight— ’tis New Year’s|
w: up, and gird your ar-|mor on; Go * forth|to work— ’tis New Year’s|
w: up, and gird your ar-|mor on; Go * forth|in prayer— ’tis New Year’s|
 [Ad]2 [Ac]2 [GB]2 [FA]2 | ([EG]2 [Gc]2) [GB]4 | [Gc]6 z2 |] %16
w: morn! ’Tis New Year’s|morn! * *||
w: morn! ’Tis New Year’s|morn! * *||
w: morn! ’Tis New Year’s|morn! * *||
V:2
 x6 F2 | x8 | x2 D2 x/ G2 x3/2 | x4 G3 x | x6 F2 | x8 | G2 G2 E2 E2 | x8 | x7 G | (cG)EG c2 x2 | %10
 x7 G | (cG) G2 x4 | x8 | x8 | x8 | x8 |] %16
V:3
 [C,C]2 [C,G,]>[C,G,] [C,C]2 [C,C]2 | [C,G,]2 [F,A,]2 [C,G,]3 [C,G,] | %2
 [C,G,]2 ([B,,^F,]>[G,,G,]) [C,G,]2 ([B,,D]>[A,,E]) | [D,D]2 [D,C]2 [G,B,]3 [G,B,] | %4
 [C,C]2 [C,G,]2 [C,C]2 [C,C]2 | [C,G,]2 [C,G,]2 [C,C]3 [C,G,] | %6
 [B,,G,]2 [E,G,]2 [A,,G,]2 ([B,,G,][C,A,]) | [D,B,]2 [D,D]2 [G,,D]2 z2 | %8
 [G,D]2 [G,D]>[G,C] [G,B,]3 G, | CG,E,G, C2 z2 | [G,D]2 [G,D]>[G,C] [G,B,]3 G, | %11
 CG, C2 [G,B,]2 z2 | [C,C]2 [C,C]>[C,C] [E,B,]3 [E,B,] | [F,A,]2 [F,A,]2 [F,C]2 [F,C]2 | %14
 (C2 E2) [G,,D]4 | [C,E]6 z2 |] %16
V:4
 x8 | x8 | x8 | x8 | x8 | x8 | x8 | x8 | x7 G, | (CG,) (E,G,) C2 x2 | x7 G, | (CG,) (E,C,) x4 | %12
 x8 | x8 | G,4 x4 | x8 |] %16

